X: 30606
T: One Seventy Four
R: jig
M: 6/8
K: Dmajor
gf3/2 e/d Ad|cdA F D2|:ADD DFG|AdB/c/ d/B/AB|GFD FAF|
AB3/2G/ Bc3/2A/|cd3/2c/ def|gfb agf|ef3/2e/ dAd|cdA F D2:|
|:f/g/af daf|dg/f/g/a/ baf|dec Aec|Ad/c/d/e/ fec|Ad3/2c/ dAB|
GFD FAF|ABG BcA|cd3/2c/ def|gfe dAd|cdA F D2:|

